svgs/solid/scalpel-line-dashed.svg

<svg xmlns="http://www.w3.org/2000/svg" viewBox="0 0 576 512"><!-- Font Awesome Pro 6.0.0-alpha2 by @fontawesome - https://fontawesome.com License - https://fontawesome.com/license (Commercial License) --><path d="M495.23 114.367C521.59 83.49 516.467 35.863 482.738 11.861C453.506 -9.014 412.531 -1.139 389.297 26.113L187.922 261.498C178.928 272 186.424 288 200.041 288H331.957C341.326 288 350.195 283.875 356.316 276.75L495.23 114.367ZM240.191 430.375C272.277 404.625 288 366.375 288 328V320H179.984L0 512C88.969 512.125 174.104 482.875 239.553 430.875C239.809 430.625 239.936 430.5 240.191 430.375ZM304 480H240C231.164 480 224 487.164 224 496S231.164 512 240 512H304C312.836 512 320 504.836 320 496S312.836 480 304 480ZM432 480H368C359.164 480 352 487.164 352 496S359.164 512 368 512H432C440.836 512 448 504.836 448 496S440.836 480 432 480ZM560 480H496C487.164 480 480 487.164 480 496S487.164 512 496 512H560C568.836 512 576 504.836 576 496S568.836 480 560 480Z"/></svg>

<svg xmlns="http://www.w3.org/2000/svg" viewBox="0 0 576 512"><!--! Font Awesome Pro 6.3.0 by @fontawesome - https://fontawesome.com License - https://fontawesome.com/license (Commercial License) Copyright 2023 Fonticons, Inc. --><path d="M441.4 0c-20.8 0-40.6 9.2-54 25.1L187.8 261.7c-4 4.8-4.9 11.4-2.3 17.1s8.3 9.3 14.5 9.3H332.6c14.1 0 27.6-6.2 36.7-17L494.4 122.7C505.8 109.2 512 92.2 512 74.6v-4C512 31.6 480.4 0 441.4 0zM164.7 324.7l-160 160c-4.6 4.6-5.9 11.5-3.5 17.4s8.3 9.9 14.8 9.9c18.1 0 84.1-8.4 145.9-33.1C222.5 454.6 288 410.9 288 336V320H272 176h-6.6l-4.7 4.7zM304 480H240c-8.8 0-16 7.2-16 16s7.2 16 16 16h64c8.8 0 16-7.2 16-16s-7.2-16-16-16zm128 0H368c-8.8 0-16 7.2-16 16s7.2 16 16 16h64c8.8 0 16-7.2 16-16s-7.2-16-16-16zm128 0H496c-8.8 0-16 7.2-16 16s7.2 16 16 16h64c8.8 0 16-7.2 16-16s-7.2-16-16-16z"/></svg>
